X:344
T:Archtop
M:C|
C:© Paul Gitlitz 2013
K:D
"D"d2dc d2dc|dcde fedc|"Bm"B2BA B2BA|BABc "A"dcec|!
"D"d2dc d2dc|dcde fedc|"Bm"B2BA "D"F2FA|1"A"cdef "D"d2Ac:|2"A"cdef "D"d2ag|!
|:"D/F#"f2fe "D"d2dc|"Bm"B2BA "G"G2gf|"A"e2ed "F#m"c2cB|"E"A^GAB "A"A2ag|!
"D"fdad "G"gdfd|gabg "Em"e3g|"D"fadf AdFA|1"A"cdec "D"d2ag:|2"A"cdec "D"d4|]
